X:1
T:Condensed Exercise I - Placing (Full Hand)
C:Grossi Method
S:November 10, 1951
M:4/4
L:1/8
Q:1/4=80
K:C
%%text Fingers 4-3-2-1, place all four in advance, simile
CDEF DEFG|EFGA FGAB|GABc ABcd|Bcde cdef|defg efga|
agfe gfed|fedc edcB|dcBA cBAG|BAGF AGFE|GFED FEDC|C8|]
